src/images_karasa_jaga_svg/cmd/32/flowchartshapes.flowchart-document.svg

<svg height="32" viewBox="0 0 32 32" width="32" xmlns="http://www.w3.org/2000/svg" xmlns:xlink="http://www.w3.org/1999/xlink"><linearGradient id="a" gradientTransform="matrix(-.40973888 0 0 -.24845378 81.86138 104.74349)" gradientUnits="userSpaceOnUse" x1="53.35442" x2="53.35442" y1="-93.604973" y2="430.87671"><stop offset="0" stop-color="#fff"/><stop offset=".46044239" stop-color="#fff"/><stop offset=".76740402" stop-color="#f1f1f1"/><stop offset=".92088479" stop-color="#eaeaea"/><stop offset="1" stop-color="#dfdfdf"/></linearGradient><linearGradient id="b" gradientTransform="matrix(-.40973888 0 0 -.24845378 81.86138 104.74349)" gradientUnits="userSpaceOnUse" x1="48.807499" x2="-23.321741" y1="-276.10406" y2="515.17896"><stop offset="0" stop-color="#7c9fcf"/><stop offset=".5" stop-color="#7c9ece"/><stop offset="1" stop-color="#7b9dcf"/></linearGradient><g fill-rule="evenodd" transform="scale(.25)"><path d="m12 3.9980469a4.0017305 4.0017305 0 0 0 -4.0019531 4.0019531v71.101562 17.890626 19.007812a4.0017305 4.0017305 0 0 0 2.4433591 3.68555c5.566188 2.35423 15.644835 4.66962 26.619141 4.10937 10.974306-.56024 23.065491-4.27791 30.267578-14.97656l-.203125.27734c8.857601-10.983293 28.315185-13.255312 48.61523-11.937497a4.0017305 4.0017305 0 0 0 4.26172-3.992187v-85.166016a4.0017305 4.0017305 0 0 0 -4.00195-4.0019531z" fill="url(#b)"/><path d="m116 93.166011v-85.166011h-104v71.101558 17.890625 19.007817c9.502687 4.01919 39.442404 9.25063 52.009015-9.41699 10.383979-12.875987 31.275957-14.761753 51.990985-13.416999z" fill="url(#a)"/></g></svg>

<?xml version="1.0" encoding="UTF-8" standalone="no"?>
<!-- Created with Inkscape (http://www.inkscape.org/) -->

<svg
   xmlns:dc="http://purl.org/dc/elements/1.1/"
   xmlns:cc="http://creativecommons.org/ns#"
   xmlns:rdf="http://www.w3.org/1999/02/22-rdf-syntax-ns#"
   xmlns:svg="http://www.w3.org/2000/svg"
   xmlns="http://www.w3.org/2000/svg"
   xmlns:xlink="http://www.w3.org/1999/xlink"
   xmlns:sodipodi="http://sodipodi.sourceforge.net/DTD/sodipodi-0.dtd"
   xmlns:inkscape="http://www.inkscape.org/namespaces/inkscape"
   version="1.1"
   id="svg2"
   width="128"
   height="128"
   viewBox="0 0 128 128"
   sodipodi:docname="flowchartshapes.flowchart-document.svg"
   inkscape:export-filename="/home/rizmut/Dokumen/Rizmut/Github/libreoffice-style-karasa-jaga/build/images_karasa_jaga/cmd/32/flowchartshapes.flowchart-document.png"
   inkscape:export-xdpi="24"
   inkscape:export-ydpi="24"
   inkscape:version="0.92.3 (unknown)">
  <metadata
     id="metadata8">
    <rdf:RDF>
      <cc:Work
         rdf:about="">
        <dc:format>image/svg+xml</dc:format>
        <dc:type
           rdf:resource="http://purl.org/dc/dcmitype/StillImage" />
        <dc:title />
      </cc:Work>
    </rdf:RDF>
  </metadata>
  <defs
     id="defs6">
    <inkscape:perspective
       id="perspective27"
       inkscape:persp3d-origin="64 : 42.666667 : 1"
       inkscape:vp_z="128 : 64 : 1"
       inkscape:vp_y="0 : 1000 : 0"
       inkscape:vp_x="0 : 64 : 1"
       sodipodi:type="inkscape:persp3d" />
    <linearGradient
       id="linearGradient3369">
      <stop
         id="stop3372"
         offset="0"
         style="stop-color:#ffffff;stop-opacity:1;" />
      <stop
         style="stop-color:#ffffff;stop-opacity:1;"
         offset="0.46044239"
         id="stop3374" />
      <stop
         style="stop-color:#f1f1f1;stop-opacity:1;"
         offset="0.76740402"
         id="stop3376" />
      <stop
         id="stop3378"
         offset="0.92088479"
         style="stop-color:#eaeaea;stop-opacity:1;" />
      <stop
         id="stop3384"
         offset="1"
         style="stop-color:#dfdfdf;stop-opacity:1;" />
    </linearGradient>
    <linearGradient
       id="linearGradient7422">
      <stop
         style="stop-color:#7c9fcf;stop-opacity:1"
         offset="0"
         id="stop7424" />
      <stop
         id="stop5348"
         offset="0.5"
         style="stop-color:#7c9ece;stop-opacity:1" />
      <stop
         id="stop7426"
         offset="1"
         style="stop-color:#7b9dcf;stop-opacity:1" />
    </linearGradient>
    <linearGradient
       y2="388.95178"
       x2="399.77466"
       y1="1324.7792"
       x1="405.94968"
       gradientTransform="matrix(0.08097132,0,0,0.07807154,182.74486,-6.9021226)"
       gradientUnits="userSpaceOnUse"
       id="linearGradient2330"
       xlink:href="#linearGradient7422"
       inkscape:collect="always" />
    <linearGradient
       y2="430.87671"
       x2="53.35442"
       y1="-93.604973"
       x1="53.35442"
       gradientTransform="matrix(-0.40973888,0,0,-0.24845378,81.86138,104.74349)"
       gradientUnits="userSpaceOnUse"
       id="linearGradient2360"
       xlink:href="#linearGradient3369"
       inkscape:collect="always" />
    <linearGradient
       inkscape:collect="always"
       xlink:href="#linearGradient7422"
       id="linearGradient836"
       gradientUnits="userSpaceOnUse"
       gradientTransform="matrix(-0.40973888,0,0,-0.24845378,81.86138,104.74349)"
       x1="48.807499"
       y1="-276.10406"
       x2="-23.321741"
       y2="515.17896" />
  </defs>
  <sodipodi:namedview
     pagecolor="#ffffff"
     bordercolor="#666666"
     borderopacity="1"
     objecttolerance="10"
     gridtolerance="10"
     guidetolerance="10"
     inkscape:pageopacity="0"
     inkscape:pageshadow="2"
     inkscape:window-width="1366"
     inkscape:window-height="657"
     id="namedview4"
     showgrid="true"
     inkscape:snap-page="true"
     inkscape:snap-global="true"
     inkscape:zoom="1.7320077"
     inkscape:cx="-10.442097"
     inkscape:cy="51.40121"
     inkscape:window-x="0"
     inkscape:window-y="30"
     inkscape:window-maximized="1"
     inkscape:current-layer="svg2"
     showguides="false">
    <inkscape:grid
       type="xygrid"
       id="grid837"
       spacingx="4"
       spacingy="4"
       empspacing="1" />
  </sodipodi:namedview>
  <path
     sodipodi:type="inkscape:offset"
     inkscape:radius="4.0013304"
     inkscape:original="M 12 8 L 12 79.101562 L 12 96.992188 L 12 116 C 21.502687 120.01919 51.443155 125.2516 64.009766 106.58398 C 74.393745 93.707997 95.284972 91.821262 116 93.166016 L 116 8 L 12 8 z "
     style="fill:url(#linearGradient836);fill-opacity:1;fill-rule:evenodd;stroke:none;stroke-width:4.47213125;stroke-linecap:round;stroke-linejoin:round;stroke-miterlimit:4;stroke-dasharray:none;stroke-opacity:1"
     id="path834"
     d="M 12,3.9980469 A 4.0017305,4.0017305 0 0 0 7.9980469,8 V 79.101562 96.992188 116 a 4.0017305,4.0017305 0 0 0 2.4433591,3.68555 c 5.566188,2.35423 15.644835,4.66962 26.619141,4.10937 10.974306,-0.56024 23.065491,-4.27791 30.267578,-14.97656 L 67.125,109.0957 C 75.982601,98.112407 95.440185,95.840388 115.74023,97.158203 a 4.0017305,4.0017305 0 0 0 4.26172,-3.992187 V 8 A 4.0017305,4.0017305 0 0 0 116,3.9980469 Z" />
  <path
     style="fill:url(#linearGradient2360);fill-opacity:1;fill-rule:evenodd;stroke:none;stroke-width:4.47213125;stroke-linecap:round;stroke-linejoin:round;stroke-miterlimit:4;stroke-dasharray:none;stroke-opacity:1"
     d="M 116,93.166011 V 8 H 12 V 79.101558 96.992183 116 c 9.502687,4.01919 39.442404,9.25063 52.009015,-9.41699 C 74.392994,93.707023 95.284972,91.821257 116,93.166011 Z"
     id="path37359"
     inkscape:connector-curvature="0"
     sodipodi:nodetypes="cccccccc" />
  <g
     transform="matrix(0,0.57912965,0.57912965,0,27.114229,-2.9133545)"
     inkscape:label="Livello 1"
     id="g1544" />
  <g
     transform="matrix(0,-0.57912965,0.57912965,0,27.114229,130.91165)"
     inkscape:label="Livello 1"
     id="g1599" />
</svg>
